img/logo.svg

<?xml version="1.0" encoding="UTF-8" standalone="no"?>
<!-- Created with Inkscape (http://www.inkscape.org/) -->

<svg
   xmlns:dc="http://purl.org/dc/elements/1.1/"
   xmlns:cc="http://creativecommons.org/ns#"
   xmlns:rdf="http://www.w3.org/1999/02/22-rdf-syntax-ns#"
   xmlns:svg="http://www.w3.org/2000/svg"
   xmlns="http://www.w3.org/2000/svg"
   xmlns:sodipodi="http://sodipodi.sourceforge.net/DTD/sodipodi-0.dtd"
   xmlns:inkscape="http://www.inkscape.org/namespaces/inkscape"
   width="190mm"
   height="190mm"
   viewBox="0 0 190 190"
   version="1.1"
   id="svg8"
   inkscape:version="0.92.2 5c3e80d, 2017-08-06"
   sodipodi:docname="logo.svg"
   inkscape:export-filename="/home/tux/Android/Projekts/Twthaar/app/src/main/res/mipmap-xxxhdpi/ic_launcher.png"
   inkscape:export-xdpi="25.667368"
   inkscape:export-ydpi="25.667368">
  <defs
     id="defs2" />
  <sodipodi:namedview
     id="base"
     pagecolor="#ffffff"
     bordercolor="#666666"
     borderopacity="1.0"
     inkscape:pageopacity="0.0"
     inkscape:pageshadow="2"
     inkscape:zoom="0.78678728"
     inkscape:cx="359.05512"
     inkscape:cy="359.05512"
     inkscape:document-units="mm"
     inkscape:current-layer="layer1"
     showgrid="false"
     inkscape:snap-global="false"
     fit-margin-top="0"
     fit-margin-left="0"
     fit-margin-right="0"
     fit-margin-bottom="0"
     inkscape:window-width="1251"
     inkscape:window-height="778"
     inkscape:window-x="29"
     inkscape:window-y="0"
     inkscape:window-maximized="1" />
  <metadata
     id="metadata5">
    <rdf:RDF>
      <cc:Work
         rdf:about="">
        <dc:format>image/svg+xml</dc:format>
        <dc:type
           rdf:resource="http://purl.org/dc/dcmitype/StillImage" />
        <dc:title />
      </cc:Work>
    </rdf:RDF>
  </metadata>
  <g
     inkscape:label="Ebene 1"
     inkscape:groupmode="layer"
     id="layer1"
     transform="translate(-15.741081,-9.8910325)">
    <path
       style="opacity:1;fill:#00ccff;fill-opacity:1;stroke:none;stroke-width:1.51144981;stroke-miterlimit:4;stroke-dasharray:none;stroke-dashoffset:0;stroke-opacity:1"
       d="M 589.98242 21.609375 C 582.41936 21.541192 573.85467 25.366216 566.21484 34.691406 L 490.30273 119.04688 A 307.87768 234.30628 0 0 0 348.36328 92.257812 A 307.87768 234.30628 0 0 0 209.50781 117.72461 L 154.75586 56.882812 C 129.02181 25.471641 92.793593 56.474738 119.70117 88.429688 L 164.95508 138.71875 A 307.87768 234.30628 0 0 0 40.486328 326.56445 A 307.87768 234.30628 0 0 0 40.603516 329.10156 C 40.543346 330.15329 40.505859 331.21198 40.505859 332.2793 L 40.505859 347.19727 L 194.39453 375.6543 C 214.07679 415.4711 223.35906 457.3628 206.89453 504.39062 C 85.169534 506.85998 117.81489 585.01849 139.41211 580.11523 L 119.16797 605.35547 L 139.41211 600.30859 L 127.60352 632.2793 C 140.53758 631.29571 153.47218 625.25179 166.40625 601.99023 C 355.80506 630.09932 413.01359 478.45176 395.20312 423.19922 L 448.57227 436.68164 L 497.14258 540.9668 L 522.85742 452.39648 L 657.64844 483.08008 L 657.64844 332.2793 C 657.64844 327.47053 657.02231 322.81483 655.85938 318.38086 A 307.87768 234.30628 0 0 0 534.62109 140.29883 L 601.26953 66.236328 C 620.18894 43.768004 607.89489 21.770852 589.98242 21.609375 z M 215.50586 223.70703 A 69.285706 58.571423 0 0 1 284.79102 282.2793 A 69.285706 58.571423 0 0 1 215.50586 340.84961 A 69.285706 58.571423 0 0 1 146.2207 282.2793 A 69.285706 58.571423 0 0 1 215.50586 223.70703 z M 488.36328 237.99414 A 50.71428 44.285706 0 0 1 539.07812 282.2793 A 50.71428 44.285706 0 0 1 488.36328 326.56445 A 50.71428 44.285706 0 0 1 437.64844 282.2793 A 50.71428 44.285706 0 0 1 488.36328 237.99414 z M 253.66016 260.26562 A 22.857144 30.714284 20.394676 0 0 227.65234 282.16992 A 22.857144 30.714284 20.394676 0 0 238.375 318.92578 A 22.857144 30.714284 20.394676 0 0 270.50195 298.10156 A 22.857144 30.714284 20.394676 0 0 259.78125 261.34766 A 22.857144 30.714284 20.394676 0 0 253.66016 260.26562 z M 516.2207 279.42188 A 17.142855 13.571429 0 0 0 499.07812 292.99414 A 17.142855 13.571429 0 0 0 516.2207 306.56445 A 17.142855 13.571429 0 0 0 533.36328 292.99414 A 17.142855 13.571429 0 0 0 516.2207 279.42188 z M 227.15625 381.71289 L 238.57227 383.82422 L 240.1582 402.53906 C 237.24974 395.24998 233.12843 388.17331 227.15625 381.71289 z M 312.85742 402.39648 L 392.1582 422.42969 C 364.04204 453.2099 337.04359 495.14329 304.74414 484.19727 C 313.92096 450.39062 309.24882 430.39834 299.43945 415.5293 L 312.85742 402.39648 z M 242.85742 434.53906 L 247.20117 459.60938 L 277.14258 435.25391 L 285 459.53906 L 269.28516 463.82617 C 285.266 476.68333 278.41316 489.53933 272.14258 502.39648 L 247.85742 508.11133 C 231.12622 493.18321 234.78783 480.5212 234.28711 467.39648 L 242.85742 434.53906 z M 195.08594 517.85352 L 183.27539 544.77734 L 198.45898 563.28711 L 173.1543 549.82617 L 156.28516 566.65234 L 163.03125 541.41211 L 156.28516 522.90039 L 173.1543 539.72852 L 195.08594 517.85352 z M 286.42773 528.11133 C 293.52826 528.11118 299.28462 533.22748 299.28516 539.53906 C 299.28586 545.85144 293.52915 550.9689 286.42773 550.96875 C 279.32632 550.9689 273.56961 545.85144 273.57031 539.53906 C 273.57085 533.22748 279.3272 528.11118 286.42773 528.11133 z M 263.57031 569.53906 C 270.67149 569.53895 276.4281 574.33626 276.42773 580.25391 C 276.4281 586.17155 270.67149 590.96886 263.57031 590.96875 C 256.4699 590.96799 250.71447 586.17091 250.71484 580.25391 C 250.71447 574.3369 256.4699 569.53982 263.57031 569.53906 z M 248.375 636.23828 L 248.375 636.24023 A 13.571428 17.857143 0 0 0 234.80273 654.0957 A 13.571428 17.857143 0 0 0 234.82422 654.9375 A 35.000001 11.428572 0 0 0 204.80273 666.23828 A 35.000001 11.428572 0 0 0 239.80273 677.66797 A 35.000001 11.428572 0 0 0 243.16211 677.60352 A 33.571429 19.285715 0 0 0 241.94531 682.66797 A 33.571429 19.285715 0 0 0 275.51758 701.95312 A 33.571429 19.285715 0 0 0 309.08789 682.66797 A 33.571429 19.285715 0 0 0 275.51758 663.38281 A 33.571429 19.285715 0 0 0 273.68945 663.41602 A 35.000001 11.428572 0 0 0 261.71094 657.33789 A 13.571428 17.857143 0 0 0 261.94531 654.09375 A 13.571428 17.857143 0 0 0 248.375 636.23828 z "
       transform="matrix(0.26458333,0,0,0.26458333,15.741081,9.8910325)"
       id="rect916-3" />
  </g>
</svg>

<?xml version="1.0" encoding="UTF-8" standalone="no"?>
<!-- Created with Inkscape (http://www.inkscape.org/) -->

<svg
   xmlns:dc="http://purl.org/dc/elements/1.1/"
   xmlns:cc="http://creativecommons.org/ns#"
   xmlns:rdf="http://www.w3.org/1999/02/22-rdf-syntax-ns#"
   xmlns:svg="http://www.w3.org/2000/svg"
   xmlns="http://www.w3.org/2000/svg"
   xmlns:sodipodi="http://sodipodi.sourceforge.net/DTD/sodipodi-0.dtd"
   xmlns:inkscape="http://www.inkscape.org/namespaces/inkscape"
   width="190mm"
   height="190mm"
   viewBox="0 0 190 190"
   version="1.1"
   id="svg8"
   inkscape:version="0.92.2 5c3e80d, 2017-08-06"
   sodipodi:docname="logo.svg"
   inkscape:export-filename="/home/tux/Android/Projekts/Twthaar/app/src/main/res/mipmap-xxxhdpi/ic_launcher.png"
   inkscape:export-xdpi="25.667368"
   inkscape:export-ydpi="25.667368">
  <defs
     id="defs2" />
  <sodipodi:namedview
     id="base"
     pagecolor="#ffffff"
     bordercolor="#666666"
     borderopacity="1.0"
     inkscape:pageopacity="0.0"
     inkscape:pageshadow="2"
     inkscape:zoom="0.78678728"
     inkscape:cx="359.05512"
     inkscape:cy="359.05512"
     inkscape:document-units="mm"
     inkscape:current-layer="layer1"
     showgrid="false"
     inkscape:snap-global="false"
     fit-margin-top="0"
     fit-margin-left="0"
     fit-margin-right="0"
     fit-margin-bottom="0"
     inkscape:window-width="1251"
     inkscape:window-height="778"
     inkscape:window-x="29"
     inkscape:window-y="0"
     inkscape:window-maximized="1" />
  <metadata
     id="metadata5">
    <rdf:RDF>
      <cc:Work
         rdf:about="">
        <dc:format>image/svg+xml</dc:format>
        <dc:type
           rdf:resource="http://purl.org/dc/dcmitype/StillImage" />
        <dc:title></dc:title>
      </cc:Work>
    </rdf:RDF>
  </metadata>
  <g
     inkscape:label="Ebene 1"
     inkscape:groupmode="layer"
     id="layer1"
     transform="translate(-15.741081,-9.8910325)">
    <path
       style="opacity:1;fill:#00ccff;fill-opacity:1;stroke:none;stroke-width:1.51144981;stroke-miterlimit:4;stroke-dasharray:none;stroke-dashoffset:0;stroke-opacity:1"
       d="m 589.98242,21.609375 c -7.56306,-0.06818 -16.12775,3.756841 -23.76758,13.082031 L 490.30273,119.04688 C 446.50337,101.57116 397.81688,92.382274 348.36328,92.257812 300.0949,92.345675 252.52987,101.06934 209.50781,117.72461 L 154.75586,56.882812 C 129.02181,25.471642 92.793595,56.474738 119.70117,88.429688 l 45.25391,50.289062 C 86.784485,182.84233 40.630647,252.49676 40.486328,326.56445 c 0.03304,0.84586 0.07211,1.69157 0.117188,2.53711 -0.06017,1.05173 -0.09766,2.11042 -0.09766,3.17774 v 14.91797 L 194.39453,375.6543 c 19.68226,39.8168 28.96453,81.70851 12.5,128.73632 -121.724993,2.46936 -89.07964,80.62787 -67.48242,75.72461 l -20.24414,25.24024 20.24414,-5.04688 -11.80859,31.97071 c 12.93406,-0.98359 25.86866,-7.02751 38.80273,-30.28907 189.39881,28.10909 246.60734,-123.53847 228.79687,-178.79101 l 53.36915,13.48242 48.57031,104.28516 25.71484,-88.57032 134.79102,30.6836 V 332.2793 c 0,-4.80877 -0.62614,-9.46447 -1.78906,-13.89844 C 652.56013,248.19174 608.06231,182.83069 534.62109,140.29883 L 601.26953,66.236328 C 620.18894,43.768004 607.89489,21.770852 589.98242,21.609375 Z M 215.50586,223.70703 c 38.26562,2.5e-4 69.28571,26.22402 69.28516,58.57227 -7.3e-4,32.34749 -31.02045,58.57006 -69.28516,58.57031 -38.26471,-2.5e-4 -69.28443,-26.22282 -69.28516,-58.57031 -5.5e-4,-32.34825 31.01954,-58.57202 69.28516,-58.57227 z m 272.85742,14.28711 c 28.0087,-2.7e-4 50.7145,19.82686 50.71484,44.28516 -3.4e-4,24.45829 -22.70615,44.28542 -50.71484,44.28515 -28.00869,2.7e-4 -50.71449,-19.82686 -50.71484,-44.28515 3.5e-4,-24.4583 22.70614,-44.28543 50.71484,-44.28516 z m -234.70312,22.27148 c -10.56086,0.0109 -21.19873,8.97028 -26.00782,21.9043 -5.9122,15.90097 -1.11128,32.35787 10.72266,36.75586 11.83231,4.39834 26.21585,-4.92487 32.12695,-20.82422 5.91114,-15.89947 1.11136,-32.35461 -10.7207,-36.7539 -1.93683,-0.72026 -3.99596,-1.08424 -6.12109,-1.08204 z m -6.61938,23.63375 c 4.66335,-19.825 18.98791,-7.11587 15.48753,5.25566 -3.17806,9.57056 -7.4848,16.69296 -13.58104,16.69263 -7.58058,2.07842 -14.83651,-1.42354 -12.31006,-17.96363 10.16782,-23.55224 4.30685,-3.985 10.40357,-3.98466 z m 269.17992,-4.47749 c -9.46804,1.1e-4 -17.14315,6.07673 -17.14258,13.57226 7.8e-4,7.49477 7.6755,13.57019 17.14258,13.57031 9.46708,-1.2e-4 17.1418,-6.07554 17.14258,-13.57031 5.8e-4,-7.49553 -7.67454,-13.57215 -17.14258,-13.57226 z m -289.06445,102.29101 11.41602,2.11133 2.48437,29.5 c -2.90846,-7.28908 -7.92821,-25.15091 -13.90039,-31.61133 z m 85.70117,20.68359 79.30078,20.03321 c -28.11616,30.78021 -55.11461,72.7136 -87.41406,61.76758 9.17682,-33.80665 4.50468,-53.79893 -5.30469,-68.66797 z m -30.32226,27.01563 -6.91602,16.33203 c 8.33096,-1.18427 11.83195,2.99914 9.38086,13.79492 -4.22656,3.45248 -6.74493,10.32134 -15.71484,4.28711 15.98084,12.85716 9.128,25.71316 2.85742,38.57031 -7.10501,9.82533 -15.49673,9.35694 -24.28516,5.71485 -16.7312,-14.92812 -13.06959,-27.59013 -13.57031,-40.71485 l 8.57031,-32.85742 4.34375,25.07032 z m 3.25707,94.25075 c 7.10053,4.44832 13.49239,9.56462 13.49293,15.8762 7e-4,6.31238 -5.75601,11.42984 -12.85743,11.42969 -7.10141,1.5e-4 -12.85812,-5.11731 -12.85742,-11.42969 5.4e-4,-6.31158 7.02788,-12.69887 12.22192,-15.8762 z m -123.21606,4.63011 10.57813,11.43555 11.5957,-10.64063 6.11523,6.72852 -7.58984,8.96093 10.52734,9.52344 -6.57812,6.29102 -10.02539,-10.31641 -15.9707,11.43359 -3.28711,-7.1875 9.13476,-9.96289 -9.45117,-10.41211 z m 101.62964,34.89113 c 5.96324,-1.13804 11.72025,10.65012 12.22192,17.06981 3.7e-4,5.91764 -5.75624,10.71495 -12.85742,10.71484 -7.10041,-7.6e-4 -12.85584,-4.79784 -12.85547,-10.71484 1.85561,-5.91701 9.54502,-17.06905 13.49097,-17.06981 z M 248.375,636.23828 v 0.002 c -7.49513,-6.1e-4 -13.57157,7.99346 -13.57227,17.85547 0.002,0.28078 0.009,0.56146 0.0215,0.8418 -17.21641,0.80786 -30.00386,5.62135 -30.02149,11.30078 -0.002,6.31226 15.6687,11.42969 35,11.42969 1.12231,-0.004 2.2434,-0.0254 3.35938,-0.0644 -0.79503,1.64965 -1.20422,3.35276 -1.2168,5.06445 5.4e-4,10.65117 15.03134,19.28542 33.57227,19.28515 18.54017,-3.5e-4 33.56977,-8.63442 33.57031,-19.28515 -5.3e-4,-10.65074 -15.03014,-19.2848 -33.57031,-19.28516 -0.60979,0.002 -1.21939,0.0126 -1.82813,0.0332 -1.87396,-2.39583 -6.07708,-4.52858 -11.97851,-6.07813 0.15311,-1.06972 0.23156,-2.15562 0.23437,-3.24414 -7e-4,-9.861 -6.07595,-17.85466 -13.57031,-17.85547 z"
       transform="matrix(0.26458333,0,0,0.26458333,15.741081,9.8910325)"
       id="rect916-3"
       inkscape:connector-curvature="0"
       sodipodi:nodetypes="scccccccccscccccccccccccscccscccccccccccccscccccccccccccccccccccccccccccccccccccccccccccccccccccccccccccccccccccc" />
  </g>
</svg>
